X:323
T: NAMEN NENNEN DICH NICHT
N: B0379
O: Europa, Mitteleuropa, Deutschland
R: Liebes - Lied, Liebes - Lust
M: 6/8
L: 1/8
K: F
 | A2AAGA | c3Bz
A | G2GGcB | BAz4 |
AGFFEF | D3d3 |
cAFFGE | F3z3

@@@ Tune index: 2126
